public/avatar/hat/101.svg

<svg xmlns:xlink="http://www.w3.org/1999/xlink" height="92.9" width="100.7" xmlns="http://www.w3.org/2000/svg"><use height="35.7" transform="translate(18.15 35.5)" width="41.05" xlink:href="#a"/><defs><g id="a" fill-rule="evenodd"><path d="M12.45 8.6Q14 10.9 14 11.65 14 13 12.75 13 4.1 6-.45 6q-5.85 0-8.5 4.4l-1.6 3q-.8 1.35-1.85 1.35-1.6 0-1.6-1.35l1.25-1.35.5-1.5q.65-1.45 2-2.9 2.1-2.4 3.25-2.9l2.95-.9q1.6.2 2.05-.35.4-.5 1.25-.5 1.6 0 5.7 1.1t5.3 1.85q.7.45 2.2 2.65" fill="#2c2833" fill-opacity=".251" transform="translate(20.5 14.25)"/><path d="m2.45-12.6.35.05.7-.75q1-.55 1.95-.3 1 .25 1.65 2.2l.15.05q.8-1.25 2.15-.55.95.5 1.05 2.2l.05.05q1.45-1.4 2.95 0 .85.85.3 2h.45q1.65 0 2.5 1.6.9 1.8-.25 2.4 1.25-.5 2 1.2.8 1.75-.5 2.55v.05q1.4-.35 1.7 1.1.25 1.4-.9 2.3 1.65.5 1.8 1.55.1 1.05-1.7 2.4.5.15.85.75.3.65.05 1.1-.65 1.1-2.35 1.1.55.2.7.8.15.6-.2 1.05-.4.45-1.05.35l-1.15-.2q.45.3.35.95l-.5.9-.75.25q0 1.85-1.05 3.55l-.3.65-1.75 1.9q-1.5 1.15-2.15.6-1.1-1 .85-5.15 1.1-3 1.9-4.3l-.15-.4-1.3-.15Q9.4 9.4 10.4 8.4l-.1-.15q-2.45-.2-2.1-1.95l-2.15-.15q-1.05-.5-1-1.75-.75.95-2.05.45-1.3-.5-1.05-1.6Q1.15 4.5 0 4.55q-1.2 0-1.65-1.4Q-2 4.4-3.1 4.75q-1.05.35-2.1-.4l-.1.05q.1 1.75-2.45 1.85l-.15.15q.15 2.05-1.75 2l-.15.15q.25 2.5-1.65 2.35l-.1.2q.45 1.3-.25 2.05h-.05l1.2 2.95q1.95 4.15.85 5.15-.65.55-2.1-.6-1.2-.95-1.8-1.9l-.5-1.4q-.85-1.55-1-2.9l-.35-.15-.5-.9q-.1-.65.35-.95l-2.2-.15q-.35-.45-.2-1.05.15-.6.7-.8-1.7 0-2.35-1.1-.25-.45.1-1.1.3-.6.8-.75-1.75-1.3-1.65-2.4.05-.7.9-1.2-.85-1.05-.65-2.3.2-.85 1.15-1.4-.55-.7-.55-1.25.05-.9.85-1.65.85-.8 1.65-.3-1.1-1.55-.1-3 .85-1.2 2.55-.55-1.45-1.45.4-2.95 1.8-1.5 3.3 0l.15.15-.05-.8q.1-.85.8-1.35 1.45-1.05 3.15.25l.35-.15q.65-1.95 1.45-2.25 1.7-.65 2.9 1.1l2.5-1.7q1.95-.15 2.2 1.65" transform="translate(20.5 14.25)"/><path d="M-10.1-3.55q-6.6 9.1-5.85 5.65l-1.25 2.6q-1.9-1.6-.25-4.1 1.25-1.9 1.75-1.5-.85-4.65 2.65-3.95-1.25-1.65.25-3 1.45-1.3 2.45.6 1.2-2.35 3.4-2.1l3.2.7q-1 1.4-3 2.7l-3.35 2.4" fill="#858585" transform="translate(20.5 14.25)"/><path d="M-5.4-5.1-9.95-.65q-3.4 5.2-6 5.5l-1.75 1q-.15-4 1.35-5.1L-14.8.4q-.35-1.25.2-2.3.65-1.2 2.1-.6-.2-1.65.9-2.6 1.15-1 2.7-.3-.75-3.8 6.6-3.4-.15.75-3.1 3.7" transform="translate(20.5 14.25)"/></g></defs></svg>

<?xml version="1.0" encoding="UTF-8" standalone="no"?>
<svg xmlns:xlink="http://www.w3.org/1999/xlink" height="92.9px" width="100.7px" xmlns="http://www.w3.org/2000/svg">
  <g transform="matrix(1.0, 0.0, 0.0, 1.0, 38.65, 49.75)">
    <use height="35.7" transform="matrix(1.0, 0.0, 0.0, 1.0, -20.5, -14.25)" width="41.05" xlink:href="#shape0"/>
  </g>
  <defs>
    <g id="shape0" transform="matrix(1.0, 0.0, 0.0, 1.0, 20.5, 14.25)">
      <path d="M12.45 8.6 Q14.0 10.9 14.0 11.65 14.0 13.0 12.75 13.0 4.1 6.0 -0.45 6.0 -6.3 6.0 -8.95 10.4 L-10.55 13.4 Q-11.35 14.75 -12.4 14.75 -14.0 14.75 -14.0 13.4 L-12.75 12.05 -12.25 10.55 Q-11.6 9.1 -10.25 7.65 -8.15 5.25 -7.0 4.75 L-4.05 3.85 Q-2.45 4.05 -2.0 3.5 -1.6 3.0 -0.75 3.0 0.85 3.0 4.95 4.1 9.05 5.2 10.25 5.95 10.95 6.4 12.45 8.6" fill="#2c2833" fill-opacity="0.2509804" fill-rule="evenodd" stroke="none"/>
      <path d="M2.45 -12.6 L2.8 -12.55 3.5 -13.3 Q4.5 -13.85 5.45 -13.6 6.45 -13.35 7.1 -11.4 L7.25 -11.35 Q8.05 -12.6 9.4 -11.9 10.35 -11.4 10.45 -9.7 L10.5 -9.65 Q11.95 -11.05 13.45 -9.65 14.3 -8.8 13.75 -7.65 L14.2 -7.65 Q15.85 -7.65 16.7 -6.05 17.6 -4.25 16.45 -3.65 17.7 -4.15 18.45 -2.45 19.25 -0.7 17.95 0.1 L17.95 0.15 Q19.35 -0.2 19.65 1.25 19.9 2.65 18.75 3.55 20.4 4.05 20.55 5.1 20.65 6.15 18.85 7.5 19.35 7.65 19.7 8.25 20.0 8.9 19.75 9.35 19.1 10.45 17.4 10.45 17.95 10.65 18.1 11.25 18.25 11.85 17.9 12.3 17.5 12.75 16.85 12.65 L15.7 12.45 Q16.15 12.75 16.05 13.4 L15.55 14.3 14.8 14.55 Q14.8 16.4 13.75 18.1 L13.45 18.75 11.7 20.65 Q10.2 21.8 9.55 21.25 8.45 20.25 10.4 16.1 11.5 13.1 12.3 11.8 L12.15 11.4 10.85 11.25 Q9.4 9.4 10.4 8.4 L10.3 8.25 Q7.85 8.05 8.2 6.3 L6.05 6.15 Q5.0 5.65 5.05 4.4 4.3 5.35 3.0 4.85 1.7 4.35 1.95 3.25 1.15 4.5 0.0 4.55 -1.2 4.55 -1.65 3.15 -2.0 4.4 -3.1 4.75 -4.15 5.1 -5.2 4.35 L-5.3 4.4 Q-5.2 6.15 -7.75 6.25 L-7.9 6.4 Q-7.75 8.45 -9.65 8.4 L-9.8 8.55 Q-9.55 11.05 -11.45 10.9 L-11.55 11.1 Q-11.1 12.4 -11.8 13.15 L-11.85 13.15 -10.65 16.1 Q-8.7 20.25 -9.8 21.25 -10.45 21.8 -11.9 20.65 -13.1 19.7 -13.7 18.75 L-14.2 17.35 Q-15.05 15.8 -15.2 14.45 L-15.55 14.3 -16.05 13.4 Q-16.15 12.75 -15.7 12.45 L-17.9 12.3 Q-18.25 11.85 -18.1 11.25 -17.95 10.65 -17.4 10.45 -19.1 10.45 -19.75 9.35 -20.0 8.9 -19.65 8.25 -19.35 7.65 -18.85 7.5 -20.6 6.2 -20.5 5.1 -20.45 4.4 -19.6 3.9 -20.45 2.85 -20.25 1.6 -20.05 0.75 -19.1 0.2 -19.65 -0.5 -19.65 -1.05 -19.6 -1.95 -18.8 -2.7 -17.95 -3.5 -17.15 -3.0 -18.25 -4.55 -17.25 -6.0 -16.4 -7.2 -14.7 -6.55 -16.15 -8.0 -14.3 -9.5 -12.5 -11.0 -11.0 -9.5 L-10.85 -9.35 -10.9 -10.15 Q-10.8 -11.0 -10.1 -11.5 -8.65 -12.55 -6.95 -11.25 L-6.6 -11.4 Q-5.95 -13.35 -5.15 -13.65 -3.45 -14.3 -2.25 -12.55 L0.25 -14.25 Q2.2 -14.4 2.45 -12.6" fill="#000000" fill-rule="evenodd" stroke="none"/>
      <path d="M-10.1 -3.55 Q-16.7 5.55 -15.95 2.1 L-17.2 4.7 Q-19.1 3.1 -17.45 0.6 -16.2 -1.3 -15.7 -0.9 -16.55 -5.55 -13.05 -4.85 -14.3 -6.5 -12.8 -7.85 -11.35 -9.15 -10.35 -7.25 -9.15 -9.6 -6.95 -9.35 L-3.75 -8.65 Q-4.75 -7.25 -6.75 -5.95 L-10.1 -3.55" fill="#858585" fill-rule="evenodd" stroke="none"/>
      <path d="M-5.4 -5.1 L-9.95 -0.65 Q-13.35 4.55 -15.95 4.85 L-17.7 5.85 Q-17.85 1.85 -16.35 0.75 L-14.8 0.4 Q-15.15 -0.85 -14.6 -1.9 -13.95 -3.1 -12.5 -2.5 -12.7 -4.15 -11.6 -5.1 -10.45 -6.1 -8.9 -5.4 -9.65 -9.2 -2.3 -8.8 -2.45 -8.05 -5.4 -5.1" fill="#000000" fill-rule="evenodd" stroke="none"/>
    </g>
  </defs>
</svg>
